icons/svg/seamark_big/topmark_vertical_black_xshape_big.svg

<?xml version="1.0" encoding="UTF-8" standalone="no"?>
<svg
   xmlns:dc="http://purl.org/dc/elements/1.1/"
   xmlns:cc="http://creativecommons.org/ns#"
   xmlns:rdf="http://www.w3.org/1999/02/22-rdf-syntax-ns#"
   xmlns:svg="http://www.w3.org/2000/svg"
   xmlns="http://www.w3.org/2000/svg"
   xmlns:sodipodi="http://sodipodi.sourceforge.net/DTD/sodipodi-0.dtd"
   xmlns:inkscape="http://www.inkscape.org/namespaces/inkscape"
   width="1060"
   height="1060"
   id="svg2"
   version="1.1"
   inkscape:version="0.48.4 r9939"
   sodipodi:docname="topmark_vertical_black_sphere_big.svg">
  <defs
     id="defs13">
    <inkscape:path-effect
       effect="gears"
       id="path-effect3774"
       is_visible="true"
       teeth="6"
       phi="-1.2" />
    <inkscape:path-effect
       effect="bend_path"
       id="path-effect3772"
       is_visible="false"
       bendpath="m 95.790098,316.51174 c 144.429032,-206.42506 223.313032,-11.7428 339.548092,0"
       prop_scale="1.19"
       scale_y_rel="false"
       vertical="false"
       bendpath-nodetypes="cc" />
  </defs>
  <sodipodi:namedview
     pagecolor="#ffffff"
     bordercolor="#666666"
     borderopacity="1"
     objecttolerance="10"
     gridtolerance="10"
     guidetolerance="10"
     inkscape:pageopacity="0"
     inkscape:pageshadow="2"
     inkscape:window-width="1920"
     inkscape:window-height="1004"
     id="namedview11"
     showgrid="false"
     inkscape:zoom="0.8137931"
     inkscape:cx="542.88139"
     inkscape:cy="843.79659"
     inkscape:window-x="1680"
     inkscape:window-y="0"
     inkscape:window-maximized="1"
     inkscape:current-layer="svg2" />
  <metadata
     id="metadata2975">image/svg+xmlen<rdf:RDF>
  <cc:Work
     rdf:about="">
    <dc:format>image/svg+xml</dc:format>
    <dc:type
       rdf:resource="http://purl.org/dc/dcmitype/StillImage" />
    <dc:title></dc:title>
  </cc:Work>
</rdf:RDF>
</metadata>
  <path
     style="font-size:medium;font-style:normal;font-variant:normal;font-weight:normal;font-stretch:normal;text-indent:0;text-align:start;text-decoration:none;line-height:normal;letter-spacing:normal;word-spacing:normal;text-transform:none;direction:ltr;block-progression:tb;writing-mode:lr-tb;text-anchor:start;baseline-shift:baseline;opacity:0.43913042;color:#000000;fill:#acd8f3;fill-opacity:1;fill-rule:nonzero;stroke:#a35151;stroke-width:0;stroke-linecap:round;stroke-linejoin:miter;stroke-miterlimit:4;stroke-opacity:1;stroke-dashoffset:0;marker:none;visibility:visible;display:inline;overflow:visible;enable-background:accumulate;font-family:Sans;-inkscape-font-specification:Sans"
     d="m 473.21875,48.518387 c -6.42013,0.08529 -12.74162,3.128539 -16.8125,8.093751 L 437.375,79.799637 c -3.67192,4.475784 -5.47942,10.435081 -4.91253,16.196526 0.56689,5.761447 3.5012,11.254177 7.97503,14.928477 l 31.53125,25.875 -30.6875,25.59375 c -4.43288,3.71397 -7.31204,9.22726 -7.82675,14.98738 -0.51471,5.76013 1.34134,11.69654 5.0455,16.13762 l 19.21875,23.03125 c 3.71026,4.44639 9.22804,7.33807 14.99566,7.85872 5.76761,0.52065 11.71404,-1.33615 16.16059,-5.04622 l 6,-5 0,294.5 c -10e-4,5.79261 2.38306,11.54996 6.47905,15.64595 4.09599,4.09599 9.85334,6.48013 15.64595,6.47905 l 25,0 c 5.79261,0.001 11.54996,-2.38306 15.64595,-6.47905 4.09599,-4.09599 6.48013,-9.85334 6.47905,-15.64595 l 0,-296.4375 8.34375,6.84375 c 4.47578,3.67192 10.43508,5.47942 16.19653,4.91253 5.76144,-0.56689 11.25418,-3.5012 14.92847,-7.97503 l 19.03125,-23.1875 c 3.67192,-4.47578 5.47942,-10.43508 4.91253,-16.19653 -0.56689,-5.76144 -3.5012,-11.25418 -7.97503,-14.92847 l -31.1875,-25.59375 30.65625,-25.5625 c 4.43741,-3.70958 7.32268,-9.22059 7.84319,-14.980852 0.5205,-5.760265 -1.33014,-11.699213 -5.03069,-16.144151 L 602.625,56.580888 C 598.91981,52.138941 593.4111,49.247554 587.65069,48.721252 581.89028,48.19495 575.9488,50.040183 571.5,53.737137 l -41.53125,34.625 -42.4375,-34.8125 c -3.98739,-3.277899 -9.1511,-5.093089 -14.3125,-5.03125 z"
     id="path3819"
     inkscape:connector-curvature="0"
     sodipodi:nodetypes="cccscccscsscccsccscccsccscccsccscccc" />
  <path
     style="color:#000000;fill:none;stroke:#000000;stroke-width:25;stroke-linecap:butt;stroke-linejoin:miter;stroke-miterlimit:4;stroke-opacity:1;stroke-dasharray:none;stroke-dashoffset:0;marker:none;visibility:visible;display:inline;overflow:visible;enable-background:accumulate"
     d="m 530,509.0184 0,-391.73932"
     id="path3065"
     inkscape:connector-curvature="0"
     sodipodi:nodetypes="cc" />
  <path
     style="fill:none;stroke:#000000;stroke-width:30;stroke-linecap:butt;stroke-linejoin:miter;stroke-miterlimit:4;stroke-opacity:1;stroke-dasharray:none"
     d="M 463.99244,82.385107 596.00756,190.7328"
     id="path3792"
     inkscape:connector-curvature="0"
     inkscape:transform-center-x="-53.515586"
     inkscape:transform-center-y="-410.20199" />
  <path
     style="color:#000000;fill:none;stroke:#000000;stroke-width:30;stroke-linecap:butt;stroke-linejoin:miter;stroke-miterlimit:4;stroke-opacity:1;stroke-dasharray:none;stroke-dashoffset:0;marker:none;visibility:visible;display:inline;overflow:visible;enable-background:accumulate"
     d="M 464.90834,191.03737 595.09166,82.409037"
     id="path3794"
     inkscape:connector-curvature="0"
     inkscape:transform-center-x="-5.1350134"
     inkscape:transform-center-y="0.6418635" />
</svg>

<svg width="1060" height="1060" viewBox="0 0 1060 1060" fill="none" xmlns="http://www.w3.org/2000/svg">
<path opacity="0.43913" d="M473.219 48.5186C466.798 48.6039 460.477 51.6472 456.406 56.6124L437.375 79.7999C433.703 84.2757 431.895 90.235 432.462 95.9964C433.029 101.758 435.963 107.251 440.437 110.925L471.969 136.8L441.281 162.394C436.848 166.108 433.969 171.621 433.454 177.381C432.94 183.141 434.796 189.078 438.5 193.519L457.719 216.55C461.429 220.996 466.947 223.888 472.714 224.409C478.482 224.929 484.428 223.072 488.875 219.362L494.875 214.362V508.862C494.874 514.655 497.258 520.412 501.354 524.508C505.45 528.604 511.207 530.988 517 530.987H542C547.792 530.988 553.55 528.604 557.646 524.508C561.742 520.412 564.126 514.655 564.125 508.862V212.425L572.469 219.269C576.944 222.941 582.904 224.748 588.665 224.181C594.427 223.614 599.919 220.68 603.594 216.206L622.625 193.019C626.297 188.543 628.104 182.584 627.537 176.822C626.97 171.061 624.036 165.568 619.562 161.894L588.375 136.3L619.031 110.737C623.468 107.028 626.354 101.517 626.874 95.7565C627.395 89.9963 625.544 84.0573 621.844 79.6124L602.625 56.5811C598.92 52.1392 593.411 49.2478 587.65 48.7215C581.89 48.1952 575.949 50.0404 571.5 53.7374L529.969 88.3624L487.531 53.5499C483.544 50.272 478.38 48.4568 473.219 48.5186V48.5186Z" fill="#ACD8F3"/>
<path d="M530 509.019V117.279" stroke="black" stroke-width="25"/>
<path d="M463.992 82.3853L596.007 190.733" stroke="black" stroke-width="30"/>
<path d="M464.908 191.038L595.092 82.4092" stroke="black" stroke-width="30"/>
</svg>
